X: 3366
T: The GIRL I LEFT BEHIND ME
%R: air, march
B: James Kerr "Merry Melodies" v.3 p.41 #366
Z: 2016 John Chambers <jc:trillian.mit.edu>
M: 2/4
L: 1/8
K: G
(g/f/) |\
ed/c/ BA | BGE>uF | GG G/A/B/c/ | (d2 B)(g/f/) |\
ed/c/ BA | BGE>G | FA DE/F/ | G2G :|
|: c |\
Bdef | gdBG | Bdef | (g2 f)(g/f/) |\
ed/c/ BA | BGE>G | FA DE/F/ | G2G :|

%%sep 1 1 500
%%sep 1 1 500

